Origami/64x64/apps/preferences-desktop-screensaver.svg

<svg width="64" height="64" version="1" xmlns="http://www.w3.org/2000/svg">
 <rect transform="matrix(0,-1,-1,0,0,0)" x="-54" y="-60" width="44" height="56" rx="3" ry="3" style="fill:#325f78"/>
 <rect transform="matrix(0,-1,-1,0,0,0)" x="-50" y="-56" width="36" height="48" rx="0" ry="0" style="opacity:.2"/>
 <path d="m7 10c-1.662 0-3 1.338-3 3v1c0-1.662 1.338-3 3-3h50c1.662 0 3 1.338 3 3v-1c0-1.662-1.338-3-3-3h-50z" style="fill:#ffffff;opacity:.1"/>
 <path d="m4 51v1c0 1.662 1.338 3 3 3h50c1.662 0 3-1.338 3-3v-1c0 1.662-1.338 3-3 3h-50c-1.662 0-3-1.338-3-3z" style="opacity:.2"/>
</svg>

<svg xmlns="http://www.w3.org/2000/svg" width="64" height="64" version="1">
 <rect style="fill:#325f78" width="44" height="56" x="-54" y="-60" rx="3" ry="3" transform="matrix(0,-1,-1,0,0,0)"/>
 <rect style="opacity:0.2" width="36" height="48" x="-50" y="-56" rx="0" ry="0" transform="matrix(0,-1,-1,0,0,0)"/>
 <path style="opacity:0.1;fill:#ffffff" d="M 7 10 C 5.338 10 4 11.338 4 13 L 4 14 C 4 12.338 5.338 11 7 11 L 57 11 C 58.662 11 60 12.338 60 14 L 60 13 C 60 11.338 58.662 10 57 10 L 7 10 z"/>
 <path style="opacity:0.2" d="m 4,51 0,1 c 0,1.662 1.338,3 3,3 l 50,0 c 1.662,0 3,-1.338 3,-3 l 0,-1 c 0,1.662 -1.338,3 -3,3 L 7,54 C 5.338,54 4,52.662 4,51 Z"/>
</svg>
